X: 1
T: McKenna Country
R: reel
M: 4/4
L: 1/8
K: Dmaj
A2GE ADED|A,DDE FGAB|=c2de cAGE|=C2A,B, CDEG|
ADED ADB=c|AGED =CDEG|AB=cd ecdB|=cAGE D2cB:|
Add2 Adfd|adfd afdf|A=cc2 AcBc|g=cec gcec|
[1 Add2 Adfd|adfd d=cAB|=cBcd ecdB|=cAGE D2cB:|
[2 Addc defg|abaf g2ag|fdAB =cBcd|=cAGE D4||

composer: Joe Liddy
